gtk-icons/Papirus-Dark-GTK/16x16/actions/kr_syncbrowse_off.svg

<?xml version="1.0" encoding="UTF-8" standalone="no"?>
<!-- Created with Inkscape (http://www.inkscape.org/) -->

<svg
   xmlns:osb="http://www.openswatchbook.org/uri/2009/osb"
   xmlns:dc="http://purl.org/dc/elements/1.1/"
   xmlns:cc="http://creativecommons.org/ns#"
   xmlns:rdf="http://www.w3.org/1999/02/22-rdf-syntax-ns#"
   xmlns:svg="http://www.w3.org/2000/svg"
   xmlns="http://www.w3.org/2000/svg"
   xmlns:sodipodi="http://sodipodi.sourceforge.net/DTD/sodipodi-0.dtd"
   xmlns:inkscape="http://www.inkscape.org/namespaces/inkscape"
   sodipodi:docname="kr_syncbrowse_off.svg"
   inkscape:export-filename="/home/sam/source-symbolic.png"
   inkscape:export-xdpi="270"
   inkscape:export-ydpi="270"
   height="16"
   id="svg7384"
   style="enable-background:new"
   version="1.1"
   inkscape:version="0.91 r13725"
   width="16">
  <sodipodi:namedview
     inkscape:bbox-nodes="true"
     inkscape:bbox-paths="false"
     bordercolor="#666666"
     borderlayer="false"
     borderopacity="1"
     inkscape:current-layer="layer12"
     inkscape:cx="-26.453415"
     inkscape:cy="5.9268103"
     gridtolerance="10"
     inkscape:guide-bbox="true"
     guidetolerance="10"
     id="namedview88"
     inkscape:object-nodes="true"
     inkscape:object-paths="true"
     objecttolerance="10"
     pagecolor="#f7f7f7"
     inkscape:pageopacity="0"
     inkscape:pageshadow="2"
     showborder="true"
     showgrid="false"
     showguides="true"
     inkscape:showpageshadow="false"
     inkscape:snap-bbox="true"
     inkscape:snap-bbox-edge-midpoints="false"
     inkscape:snap-bbox-midpoints="true"
     inkscape:snap-center="false"
     inkscape:snap-global="true"
     inkscape:snap-grids="true"
     inkscape:snap-intersection-paths="true"
     inkscape:snap-midpoints="true"
     inkscape:snap-nodes="true"
     inkscape:snap-object-midpoints="true"
     inkscape:snap-others="true"
     inkscape:snap-page="false"
     inkscape:snap-smooth-nodes="true"
     inkscape:snap-to-guides="true"
     inkscape:window-height="847"
     inkscape:window-maximized="1"
     inkscape:window-width="1600"
     inkscape:window-x="0"
     inkscape:window-y="30"
     inkscape:zoom="15.07">
    <inkscape:grid
       color="#ffffff"
       dotted="false"
       empcolor="#0800ff"
       empopacity="0.4627451"
       empspacing="4"
       enabled="true"
       id="grid4866"
       opacity="0.16470588"
       originx="-164"
       originy="-216"
       snapvisiblegridlinesonly="true"
       spacingx="0.25px"
       spacingy="0.25px"
       type="xygrid"
       visible="true" />
  </sodipodi:namedview>
  <metadata
     id="metadata90">
    <rdf:RDF>
      <cc:Work
         rdf:about="">
        <dc:format>image/svg+xml</dc:format>
        <dc:type
           rdf:resource="http://purl.org/dc/dcmitype/StillImage" />
        <dc:title>Paper Symbolic Icon Theme</dc:title>
      </cc:Work>
    </rdf:RDF>
  </metadata>
  <title
     id="title8473">Paper Symbolic Icon Theme</title>
  <defs
     id="defs7386">
    <linearGradient
       id="linearGradient5606"
       osb:paint="solid">
      <stop
         id="stop5608"
         offset="0"
         style="stop-color:#ffffff;stop-opacity:1;" />
    </linearGradient>
    <filter
       style="color-interpolation-filters:sRGB"
       id="filter7554"
       inkscape:collect="always">
      <feBlend
         mode="darken"
         in2="BackgroundImage"
         id="feBlend7556"
         inkscape:collect="always" />
    </filter>
  </defs>
  <g
     inkscape:groupmode="layer"
     id="layer12"
     inkscape:label="actions"
     style="display:inline"
     transform="translate(-405.0002,-0.99999613)">
    <path
       style="color:#ffffff;font-style:normal;font-variant:normal;font-weight:normal;font-stretch:normal;font-size:medium;line-height:normal;font-family:Sans;-inkscape-font-specification:Sans;text-indent:0;text-align:start;text-decoration:none;text-decoration-line:none;letter-spacing:normal;word-spacing:normal;text-transform:none;direction:ltr;block-progression:tb;writing-mode:lr-tb;baseline-shift:baseline;text-anchor:start;display:inline;overflow:visible;visibility:visible;opacity:0.3;fill:#ffffff;fill-opacity:1;stroke:none;stroke-width:2;marker:none;enable-background:accumulate"
       d="M 2 1.0039062 C 2 1.0039062 1 1.0039063 1 2.0039062 L 1 13.003906 C 1 13.003906 1 14.003906 2 14.003906 L 14 14.003906 C 14 14.003906 15 14.003906 15 13.003906 L 15 4.0039062 C 15 3.0039062 14 3.0039063 14 3.0039062 L 9 3.0039062 L 7 1.0039062 L 2 1.0039062 z M 11.5 7 L 13.166016 8.2851562 L 11.5 9.5722656 L 11.5 8.7148438 C 10.57962 8.7148438 9.8339844 9.4809614 9.8339844 10.427734 C 9.8339844 11.374508 10.57962 12.142578 11.5 12.142578 C 12.42039 12.142578 13.166016 11.374508 13.166016 10.427734 A 0.41662656 0.42857124 0 0 1 13.583984 10 A 0.41662656 0.42857124 0 0 1 14 10.427734 A 0.41662656 0.42857124 0 0 1 13.998047 10.470703 C 13.975637 11.870944 12.86656 13 11.5 13 C 10.11942 13 9 11.847894 9 10.427734 C 9 9.0075744 10.11942 7.8574219 11.5 7.8574219 L 11.5 7 z "
       transform="translate(405.0002,0.99999613)"
       id="path5940" />
    <g
       style="enable-background:new"
       id="g4160"
       transform="translate(339.26984,-3.2754696)">
      <g
         transform="translate(-305.00043,159.00333)"
         style="display:inline"
         inkscape:label="status"
         id="layer9" />
      <g
         transform="translate(-305.00043,159.00333)"
         style="display:inline;filter:url(#filter7554)"
         inkscape:label="devices"
         id="layer10" />
      <g
         transform="translate(-64.000227,-457.99667)"
         style="display:inline"
         inkscape:label="places"
         id="layer1" />
      <g
         transform="translate(-305.00043,159.00333)"
         style="display:inline"
         inkscape:label="mimetypes"
         id="layer14" />
      <g
         transform="translate(-305.00043,159.00333)"
         style="display:inline"
         inkscape:label="emblems"
         id="layer15" />
      <g
         transform="translate(-305.00043,159.00333)"
         style="display:inline"
         inkscape:label="emotes"
         id="g71291" />
      <g
         transform="translate(-64.000227,-307.99667)"
         style="display:inline"
         inkscape:label="categories"
         id="layer2" />
      <g
         transform="translate(-64.000227,-307.99667)"
         style="display:inline"
         inkscape:label="apps"
         id="g6058" />
      <g
         transform="translate(-305.00043,159.00333)"
         style="display:inline"
         inkscape:label="actions"
         id="layer12-2" />
    </g>
  </g>
</svg>

<?xml version="1.0" encoding="UTF-8" standalone="no"?>
<!-- Created with Inkscape (http://www.inkscape.org/) -->
<svg id="svg7384" xmlns:rdf="http://www.w3.org/1999/02/22-rdf-syntax-ns#" style="enable-background:new" xmlns="http://www.w3.org/2000/svg" xmlns:osb="http://www.openswatchbook.org/uri/2009/osb" height="16" width="16" version="1.1" xmlns:cc="http://creativecommons.org/ns#" xmlns:dc="http://purl.org/dc/elements/1.1/">
 <metadata id="metadata90">
  <rdf:RDF>
   <cc:Work rdf:about="">
    <dc:format>image/svg+xml</dc:format>
    <dc:type rdf:resource="http://purl.org/dc/dcmitype/StillImage"/>
    <dc:title>Paper Symbolic Icon Theme</dc:title>
   </cc:Work>
  </rdf:RDF>
 </metadata>
 <title id="title8473">Paper Symbolic Icon Theme</title>
 <defs id="defs7386">
  <filter id="filter7554" style="color-interpolation-filters:sRGB">
   <feBlend id="feBlend7556" mode="darken" in2="BackgroundImage"/>
  </filter>
 </defs>
 <g id="layer12" transform="translate(-405 -1)">
  <path id="path5940" opacity=".3" style="color:#ffffff;text-indent:0;block-progression:tb;text-decoration-line:none;enable-background:accumulate;text-transform:none" d="m2 1.0039s-1 0-1 1v11s0 1 1 1h12s1 0 1-1v-9.0001c0-1-1-1-1-1h-5l-2-2h-5zm9.5 5.9961l1.666 1.2852-1.666 1.2871v-0.8575c-0.92 0-1.666 0.7662-1.666 1.7132s0.746 1.715 1.666 1.715 1.666-0.768 1.666-1.715a0.41663 0.42857 0 0 1 0.418 -0.428 0.41663 0.42857 0 0 1 0.416 0.428 0.41663 0.42857 0 0 1 -0.002 0.043c-0.022 1.4-1.131 2.529-2.498 2.529-1.381 0-2.5-1.152-2.5-2.572 0-1.4204 1.119-2.5706 2.5-2.5706v-0.8574z" transform="translate(405 1)" fill="#fff"/>
  <g id="g4160" style="enable-background:new" transform="translate(339.27 -3.2755)"></g>
 </g>
</svg>
